Menda-Circle/devices/48x48/block-device.svg

<?xml version="1.0" encoding="UTF-8" standalone="no"?>
<svg
   xmlns:dc="http://purl.org/dc/elements/1.1/"
   xmlns:cc="http://creativecommons.org/ns#"
   xmlns:rdf="http://www.w3.org/1999/02/22-rdf-syntax-ns#"
   xmlns:svg="http://www.w3.org/2000/svg"
   xmlns="http://www.w3.org/2000/svg"
   xmlns:sodipodi="http://sodipodi.sourceforge.net/DTD/sodipodi-0.dtd"
   xmlns:inkscape="http://www.inkscape.org/namespaces/inkscape"
   viewBox="0 0 48 48"
   id="svg2"
   version="1.1"
   inkscape:version="0.48.4 r9939"
   width="100%"
   height="100%"
   sodipodi:docname="harddrive.svg">
  <metadata
     id="metadata32">
    <rdf:RDF>
      <cc:Work
         rdf:about="">
        <dc:format>image/svg+xml</dc:format>
        <dc:type
           rdf:resource="http://purl.org/dc/dcmitype/StillImage" />
      </cc:Work>
    </rdf:RDF>
  </metadata>
  <defs
     id="defs30" />
  <sodipodi:namedview
     pagecolor="#ffffff"
     bordercolor="#666666"
     borderopacity="1"
     objecttolerance="10"
     gridtolerance="10"
     guidetolerance="10"
     inkscape:pageopacity="0"
     inkscape:pageshadow="2"
     inkscape:window-width="1366"
     inkscape:window-height="704"
     id="namedview28"
     showgrid="true"
     inkscape:zoom="13.906433"
     inkscape:cx="25.582002"
     inkscape:cy="24"
     inkscape:window-x="0"
     inkscape:window-y="27"
     inkscape:window-maximized="1"
     inkscape:current-layer="svg2">
    <inkscape:grid
       type="xygrid"
       id="grid3009" />
  </sodipodi:namedview>
  <rect
     style="fill:#839496;fill-opacity:1;stroke:none"
     id="rect3011"
     width="26"
     height="32"
     x="11"
     y="8"
     ry="2" />
  <rect
     style="opacity:0.46366782;fill:#fdf6e3;fill-opacity:1;stroke:none"
     id="rect3781"
     width="4"
     height="32"
     x="30.038273"
     y="8" />
  <path
     style="fill:#073642;fill-opacity:1"
     d="m 24.05199,13.235534 c -1.436085,-0.01491 -2.891914,0.311579 -4.25,1.03125 -4.345877,2.302941 -5.959126,7.68551 -3.65625,12.03125 1.90872,3.60193 5.919679,5.342813 9.71875,4.53125 l -1.65625,-5.84375 c -0.05431,0.0029 -0.101211,0.03125 -0.15625,0.03125 -1.656854,0 -3,-1.343146 -3,-3 0,-1.656854 1.343146,-3 3,-3 1.656854,0 3,1.343146 3,3 0,0.740711 -0.273844,1.414165 -0.71875,1.9375 l 3.84375,4.59375 c 2.786994,-2.689433 3.591225,-7.001248 1.6875,-10.59375 -1.583223,-2.987699 -4.653114,-4.685958 -7.8125,-4.71875 z"
     id="path6"
     inkscape:connector-curvature="0" />
  <path
     style="fill:#073642;fill-opacity:1;stroke:none"
     d="m 27,26.986548 3,9 3,0 0,-2 z"
     id="path3879"
     inkscape:connector-curvature="0"
     sodipodi:nodetypes="ccccc" />
  <path
     style="opacity:0.49480969;fill:#93a1a1;fill-opacity:1"
     d="m 15.583879,24.765926 c 0.7976,2.501133 2.708786,4.576373 5.260759,5.574531 l 2.094614,-5.581804 c -0.302767,-0.120455 -0.574843,-0.289908 -0.835358,-0.514848 -0.420503,-0.363079 -0.727789,-0.817371 -0.893499,-1.308214 l -5.626516,1.830335 z"
     id="path6-5"
     inkscape:connector-curvature="0" />
  <path
     inkscape:connector-curvature="0"
     style="opacity:0.24567474;fill:#268bd2;fill-opacity:1"
     d="m 15.328462,20.187301 c -0.559824,2.564846 0.05769,5.31765 1.768686,7.458066 l 4.60489,-3.786678 c -0.201975,-0.2557 -0.352874,-0.538489 -0.466018,-0.86355 -0.182626,-0.524687 -0.221597,-1.071758 -0.119684,-1.579696 l -5.787874,-1.228142 z"
     id="path6-5-8"
     inkscape:transform-center-x="5.5851443"
     inkscape:transform-center-y="1.916334" />
  <path
     inkscape:connector-curvature="0"
     style="opacity:0.49480969;fill:#93a1a1;fill-opacity:1"
     d="m 32.396173,19.174098 c -0.815425,-2.495379 -2.741369,-4.556931 -5.300398,-5.536855 l -2.054736,5.596606 c 0.303618,0.118292 0.576897,0.285799 0.83901,0.508875 0.423083,0.360069 0.733602,0.812157 0.90281,1.301806 l 5.613314,-1.870432 z"
     id="path6-5-9" />
  <path
     inkscape:connector-curvature="0"
     style="opacity:0.19031142;fill:#268bd2;fill-opacity:1"
     d="m 32.68425,23.750784 c 0.54151,-2.568774 -0.09563,-5.317102 -1.821851,-7.445257 l -4.577757,3.819436 c 0.203795,0.254252 0.356707,0.535957 0.472167,0.860203 0.186366,0.523371 0.229239,1.07015 0.130953,1.578802 l 5.796488,1.186816 z"
     id="path6-5-8-1"
     inkscape:transform-center-x="-5.5782913"
     inkscape:transform-center-y="-1.9718445" />
</svg>

<?xml version="1.0" encoding="UTF-8"?>
<svg xmlns="http://www.w3.org/2000/svg" xmlns:xlink="http://www.w3.org/1999/xlink" width="48pt" height="48pt" viewBox="0 0 48 48" version="1.1">
<g id="surface1">
<path style=" stroke:none;fill-rule:nonzero;fill:rgb(54.901961%,54.901961%,54.901961%);fill-opacity:1;" d="M 13.003906 7.996094 L 34.996094 7.996094 C 36.105469 7.996094 37.003906 8.894531 37.003906 10.003906 L 37.003906 37.996094 C 37.003906 39.105469 36.105469 40.003906 34.996094 40.003906 L 13.003906 40.003906 C 11.894531 40.003906 10.996094 39.105469 10.996094 37.996094 L 10.996094 10.003906 C 10.996094 8.894531 11.894531 7.996094 13.003906 7.996094 Z M 13.003906 7.996094 "/>
<path style=" stroke:none;fill-rule:nonzero;fill:rgb(54.901961%,73.72549%,39.607843%);fill-opacity:0.462745;" d="M 30.042969 7.996094 L 34.035156 7.996094 L 34.035156 40.003906 L 30.042969 40.003906 Z M 30.042969 7.996094 "/>
<path style=" stroke:none;fill-rule:nonzero;fill:rgb(86.666667%,86.666667%,86.666667%);fill-opacity:1;" d="M 24.050781 13.238281 C 22.617188 13.21875 21.160156 13.546875 19.804688 14.269531 C 15.457031 16.570312 13.847656 21.957031 16.148438 26.296875 C 18.050781 29.902344 22.066406 31.640625 25.863281 30.832031 L 24.210938 24.984375 C 24.152344 24.988281 24.105469 25.019531 24.050781 25.019531 C 22.394531 25.019531 21.050781 23.671875 21.050781 22.019531 C 21.050781 20.363281 22.394531 19.019531 24.050781 19.019531 C 25.710938 19.019531 27.050781 20.363281 27.050781 22.019531 C 27.050781 22.757812 26.777344 23.433594 26.332031 23.953125 L 30.175781 28.546875 C 32.964844 25.855469 33.769531 21.542969 31.863281 17.953125 C 30.28125 14.964844 27.210938 13.265625 24.050781 13.238281 Z M 24.050781 13.238281 "/>
<path style=" stroke:none;fill-rule:nonzero;fill:rgb(86.666667%,86.666667%,86.666667%);fill-opacity:1;" d="M 27 26.988281 L 30 35.988281 L 33 35.988281 L 33 33.984375 Z M 27 26.988281 "/>
<path style=" stroke:none;fill-rule:nonzero;fill:rgb(57.647059%,63.137255%,63.137255%);fill-opacity:0.494118;" d="M 15.585938 24.769531 C 16.382812 27.269531 18.292969 29.34375 20.839844 30.339844 L 22.941406 24.753906 C 22.636719 24.636719 22.363281 24.46875 22.101562 24.246094 C 21.683594 23.882812 21.375 23.425781 21.210938 22.933594 Z M 15.585938 24.769531 "/>
<path style=" stroke:none;fill-rule:nonzero;fill:rgb(54.901961%,73.72549%,39.607843%);fill-opacity:0.247059;" d="M 15.328125 20.183594 C 14.769531 22.753906 15.386719 25.503906 17.097656 27.644531 L 21.703125 23.859375 C 21.496094 23.601562 21.351562 23.320312 21.234375 22.996094 C 21.050781 22.472656 21.011719 21.925781 21.117188 21.417969 Z M 15.328125 20.183594 "/>
<path style=" stroke:none;fill-rule:nonzero;fill:rgb(57.647059%,63.137255%,63.137255%);fill-opacity:0.494118;" d="M 32.394531 19.171875 C 31.582031 16.683594 29.652344 14.621094 27.09375 13.636719 L 25.042969 19.238281 C 25.339844 19.355469 25.617188 19.519531 25.878906 19.738281 C 26.300781 20.105469 26.613281 20.554688 26.785156 21.046875 Z M 32.394531 19.171875 "/>
<path style=" stroke:none;fill-rule:nonzero;fill:rgb(54.901961%,73.72549%,39.607843%);fill-opacity:0.192157;" d="M 32.683594 23.746094 C 33.230469 21.183594 32.589844 18.433594 30.863281 16.308594 L 26.285156 20.128906 C 26.488281 20.378906 26.644531 20.660156 26.753906 20.980469 C 26.941406 21.511719 26.988281 22.054688 26.886719 22.566406 Z M 32.683594 23.746094 "/>
</g>
</svg>
